X: 1555
T: The Irish Hornpipe
B: australian traditional tunes wiki
M:4/4
L:1/8
Q: 1/4=100
K:D
V:1 
||((3ABc)|"D"d>c d>f "A7"e>c A>c|"G"d>B G>B "D"A>F D>F|"G"G>F G>A B>c d>B|"D"A>F D>F "A7"E2 ((3ABc)|
"D"d>c d>f "A7"e>c A>c|"G"d>B G>B "D"A>F D>F|"G"G>A B>e "A7"((3g/a/g/e) B>c|"D"d2f2d2e>f||
||"A7"((3g/a/g/e) c>A G>A E>A|"D"D>F A>d f>d A>F|"E7"^G>B e>d c>d B>c|"A7"A>^G A>B c2((3f/g/f/e)|
"D"d>c d>f "A7"e>c A>c|"G"d>B G>B "D"A>F D>F|"G"G>A B>e "A7"((3g/a/g/e) B>c|"D"d2f2d4||
% abcbook-tune_id 6342d53a3afc57f3d870a559


% abcbook-boost 0
% abcbook-tablature 
% abcbook-transpose 
% abcbook-lastupdated 1665324370839
% abcbook-soundfonts 
% abcbook-repeats 1
% NFF Book 2013

